!!!OTL: Zecherlied.
!!!ARE: Europa, Mitteleuropa, Deutschland
!!!SCT: A0331
!!!TXL:@@DE
!!!YEM: Copyright 1995, estate of Helmut Schaffrath.
**kern	**text
*M4/2	*
*met(c|)	*
*clefC4	*
*k[]	*
*e:phr	*
=1	=1
!LO:TX:a:t=phryg.	!
1ryy	.
2ryy	.
{2c	Do
=2	=2
1c	trun-
1B	-cken
=3	=3
1.A	ſie
2d	die
=4	=4
2.d	lie-
4B	-be
2c	lan-
2A	-ge
=5	=5
1G	nacht,
2r}	.
{2G	biß
=6	=6
1c	daß
1B	der
=7	=7
1A	lich-
1E	-te
=8	=8
2G	mor-
2G	-gen
2F	a-
2F	-ne-
=9	=9
1E	-brach,
2r}	.
{2E	der
=10	=10
1E	hel-
1E	-le
=11	=11
1.G	lich-
2F	-te
=12	=12
*lig	*
1E	mor-
1D	.
*Xlig	*
=13	=13
1C	-gen;
2r}	.
{2E	ſie
=14	=14
2G	ſun-
2G	-gen
1G	und
=15	=15
2G	ſprun-
2G	-gen
1G	vnd
=16	=16
1.A	wa-
2A	-ren
=17	=17
1A	fro,
2r}	.
{2B	vnd
=18	=18
2c	leb-
2c	-ten
1B	on
=19	=19
1A	al-
1E	-le
=20	=20
*lig	*
!LO:N:vis=0	!
1G	ſor-
!LO:N:vis=0	!
1F	.
*Xlig	*
=21	=21
0E/ll}	-gen.
==	==
!!!GTL: Trink. nnd Zechlieder, incl. Fastnacht- u. Martinslieder.
!!!AGN: Romanze, Ballade, Lied, Trinklied
!! Forster II (1540) No. 43
!!!ONB: ESAC (Essen Associative Code) Database: ALTDEU
!!!AMT: simple quadruple
!!!AIN: vox
!!!EED: Helmut Schaffrath
!!!EEV: 1.0
!!!RDF**kern: l = terminal long
!!!AMD: Phrygian
!!!URL-scan: https://rosdok.uni-rostock.de/mcrviewer/recordIdentifier/rosdok_ppn738218359/iview2/phys_0478.iview2?x=-1625.8563452843127&y=-26.249292280059308&scale=0.28036994991815867&rotation=0&layout=singlePageLayout&logicalDiv=log_0012
!!!ENC: Anna Maria Matuszewska
!!!EEV: 2024/13/03
*-	*-
